svg/multiplication_box.svg

<svg xmlns="http://www.w3.org/2000/svg" viewBox="0 0 24 24"><path d="M19 3a2 2 0 0 1 2 2v14a2 2 0 0 1-2 2H5a2 2 0 0 1-2-2V5c0-1.11.89-2 2-2zm-8 14h2v-3.27l2.83 1.63 1-1.73L14 12l2.83-1.64-1-1.73L13 10.27V7h-2v3.27L8.17 8.63l-1 1.73L10 12l-2.83 1.63 1 1.73L11 13.73z"/></svg>

<?xml version="1.0" encoding="UTF-8"?><!DOCTYPE svg PUBLIC "-//W3C//DTD SVG 1.1//EN" "http://www.w3.org/Graphics/SVG/1.1/DTD/svg11.dtd"><svg xmlns="http://www.w3.org/2000/svg" xmlns:xlink="http://www.w3.org/1999/xlink" version="1.1" id="mdi-multiplication-box" width="24" height="24" viewBox="0 0 24 24"><path d="M19,3A2,2 0 0,1 21,5V19A2,2 0 0,1 19,21H5C3.89,21 3,20.1 3,19V5C3,3.89 3.89,3 5,3H19M11,17H13V13.73L15.83,15.36L16.83,13.63L14,12L16.83,10.36L15.83,8.63L13,10.27V7H11V10.27L8.17,8.63L7.17,10.36L10,12L7.17,13.63L8.17,15.36L11,13.73V17Z" /></svg>
